img/services/04.svg

<svg width="35" height="36" viewBox="0 0 35 36" fill="none" xmlns="http://www.w3.org/2000/svg">
<path d="M33.721 0.958984H30.1954C29.9727 0.958984 29.7696 1.08466 29.6698 1.28377L26.6698 7.28406L23.6698 1.28377C23.5699 1.08466 23.3668 0.958984 23.1441 0.958984H10.2168C9.89202 0.958984 9.6292 1.22208 9.6292 1.54659V16.9291L4.06875 13.3905C3.83692 13.2433 3.53279 13.2755 3.33769 13.4708L0.399662 16.4089C0.179886 16.6289 0.16898 16.9821 0.376134 17.2148L9.6292 27.6247V34.4525C9.6292 34.777 9.89202 35.0401 10.2168 35.0401H16.6805V25.6384C16.6805 25.3139 16.9433 25.0508 17.2681 25.0508C17.5929 25.0508 17.8557 25.3139 17.8557 25.6384V35.0401H33.721C34.0458 35.0401 34.3086 34.777 34.3086 34.4525V1.54659C34.3086 1.22208 34.0458 0.958984 33.721 0.958984ZM17.8557 22.1128C17.8557 22.4373 17.5929 22.7004 17.2681 22.7004C16.9433 22.7004 16.6805 22.4373 16.6805 22.1128V20.9376C16.6805 20.6131 16.9433 20.35 17.2681 20.35C17.5929 20.35 17.8557 20.6131 17.8557 20.9376V22.1128Z" fill="white"/>
</svg>

<svg width="35" height="36" viewBox="0 0 35 36" fill="none" xmlns="http://www.w3.org/2000/svg"><path d="M33.721.959h-3.526a.588.588 0 00-.525.325l-3 6-3-6a.588.588 0 00-.526-.325H10.217a.587.587 0 00-.588.588v15.382l-5.56-3.538a.588.588 0 00-.731.08L.4 16.409a.587.587 0 00-.024.806l9.253 10.41v6.828c0 .324.263.587.588.587h6.463v-9.402a.587.587 0 111.176 0v9.402H33.72a.587.587 0 00.588-.587V1.547a.587.587 0 00-.588-.588zM17.856 22.113a.587.587 0 11-1.176 0v-1.175a.587.587 0 111.176 0v1.175z" fill="#fff"/></svg>
